X: 12654
T: Farrel O'Gara's
R: reel
M: 4/4
K: Dmajor
A,D(3DDD A,DFA|BGAF GABc|(3dcB (3cBA BGAF|1 (3GFE (3FED EA,CE:|2 GBAG FDD2||
fd(3ddd fdgd|f2gf edBc|1 (3dcB (3cBA Bcde|fagf e2de:|2 (3dcB (3cBA BGAF|GBAG FDD2||

